app/dist/common/images/wickes-plc.svg

<svg height="18" viewBox="0 0 18 18" width="18" xmlns="http://www.w3.org/2000/svg"><path d="m0 0h18v18h-18z" fill="#f0f3fa"/><path d="m8.96 14.99.04.01.03-.01 4.83-1.75.14-.05v-9.19h-10v9.19l.14.05zm-1.76-2.99h1.18l.6-4.13h.02l.61 4.13h1.16l1.23-6h-1.16l-.63 4.38h-.01l-.66-4.38h-1.09l-.65 4.38h-.01l-.63-4.38h-1.16z" fill="#004587" fill-rule="evenodd"/></svg>

<!-- by TradingView --><svg width="18" height="18" viewBox="0 0 18 18" xmlns="http://www.w3.org/2000/svg"><path fill="#F0F3FA" d="M0 0h18v18H0z"/><path fill-rule="evenodd" d="M8.96 14.99 9 15l.03-.01 4.83-1.75.14-.05V4H4v9.19l.14.05 4.82 1.75ZM7.2 12h1.18l.6-4.13H9L9.61 12h1.16L12 6h-1.16l-.63 4.38h-.01L9.54 6H8.45l-.65 4.38h-.01L7.16 6H6l1.2 6Z" fill="#004587"/></svg>
